src/rounded/icons/fi-rr-presentation.svg

<svg id="Layer_1" height="512" viewBox="0 0 24 24" width="512" xmlns="http://www.w3.org/2000/svg" data-name="Layer 1"><path d="m23 14h-1v-9a5.006 5.006 0 0 0 -5-5h-10a5.006 5.006 0 0 0 -5 5v9h-1a1 1 0 0 0 0 2h10v4h-2a3 3 0 0 0 -3 3 1 1 0 0 0 2 0 1 1 0 0 1 1-1h6a1 1 0 0 1 1 1 1 1 0 0 0 2 0 3 3 0 0 0 -3-3h-2v-4h10a1 1 0 0 0 0-2zm-19-9a3 3 0 0 1 3-3h10a3 3 0 0 1 3 3v9h-16z"/></svg>

<svg id="Layer_1" data-name="Layer 1" xmlns="http://www.w3.org/2000/svg" viewBox="0 0 24 24"><path d="M23,14H22V5a5.006,5.006,0,0,0-5-5H7A5.006,5.006,0,0,0,2,5v9H1a1,1,0,0,0,0,2H11v4H9a3,3,0,0,0-3,3,1,1,0,0,0,2,0,1,1,0,0,1,1-1h6a1,1,0,0,1,1,1,1,1,0,0,0,2,0,3,3,0,0,0-3-3H13V16H23a1,1,0,0,0,0-2ZM4,5A3,3,0,0,1,7,2H17a3,3,0,0,1,3,3v9H4Z"/></svg>
